X:115
T:Cockle Shells
Z:Jack Campin, http://www.campin.me.uk/
F:Jack Campin's Nine-Note Tunebook
% last edit 03-02-2013
B:Moffat, Dances of the Olden Time
M:C|
L:1/8
Q:1/2=110
K:DMin % original key
A2|(F3 G A2) c2|(A2d2) cAGF |A2 G2 G2 FG|A2 G2 G2
A2|(F3 G A2) c2|(A2d2) cAGF |F2 D2 D2 CD|F2 D2 D2:|
c2|(dcdc A2) c2|(dcdc  A2)GF|A2 G2 G2 FG|A2 G2 G2
c2|(dcdc A2) c2|(dcdc  A2)AG|F2 D2 D2 CD|F2 D2 D2:|

